X: 15627
T: Gobby O, The
R: jig
M: 6/8
K: Adorian
|:c2A AcA|E2A ABc|B2G GBc|dBA GBd|
c2A AcA|EAA A2g|edc BAG|EAA ABA:|
|:A2B c2d|ef2- fge|faf g2e|dBG GAB|
[1 A2B c2d|e2g a2=f|edc BAG|EAA ABA:|
[2 c2A cBA|B2G Bcd|edc BAG|EAA ABA||

